wp-content/plugins/yellow-pencil-visual-theme-customizer/images/landspace1.svg

<svg xmlns="http://www.w3.org/2000/svg" height="164" width="164"><path d="M82.695 114.836l-41.217-63.01L0 114.836h82.695zM122.61 58.37l-39.307 45.69 7.186 10.777h73.19L122.61 58.37zm-50.63 27.654l28.967-33.336 7.732 11.842-28.94 32.904-7.758-11.4zm-10.127-15.26l18.067-21.28 6.2 10.326-17.785 20.706-6.482-9.752z" fill="rgba(0,0,0,0.3)" fill-rule="evenodd"/></svg>

<?xml version="1.0" ?><!DOCTYPE svg  PUBLIC '-//W3C//DTD SVG 1.1//EN'  'http://www.w3.org/Graphics/SVG/1.1/DTD/svg11.dtd'><svg enable-background="new 0 0 164 164" height="164px" id="Layer_1" version="1.1" viewBox="0 0 164 164" width="164px" xml:space="preserve" xmlns="http://www.w3.org/2000/svg" xmlns:xlink="http://www.w3.org/1999/xlink"><path clip-rule="evenodd" d="M82.695,114.836L41.478,51.825L0,114.836H82.695L82.695,114.836z   M122.611,58.37l-39.307,45.689l7.186,10.777h73.189L122.611,58.37L122.611,58.37z M71.982,86.024l28.967-33.336l7.732,11.842  L79.74,97.434L71.982,86.024L71.982,86.024z M61.855,70.763l18.067-21.28l6.2,10.326L68.337,80.515L61.855,70.763z" fill="rgba(0,0,0,0.3)" fill-rule="evenodd"/></svg>
